web/ui/src/assets/svgs/btn/more2.svg

<svg height="24" viewBox="0 0 24 24" width="24" xmlns="http://www.w3.org/2000/svg"><g fill="none"><path d="m0 0h24v24h-24z" fill="#000" opacity="0"/><path d="m12 16.5c.825 0 1.5.675 1.5 1.5s-.675 1.5-1.5 1.5-1.5-.675-1.5-1.5.675-1.5 1.5-1.5zm-1.5-4.5c0 .825.675 1.5 1.5 1.5s1.5-.675 1.5-1.5-.675-1.5-1.5-1.5-1.5.675-1.5 1.5zm0-6c0 .825.675 1.5 1.5 1.5s1.5-.675 1.5-1.5-.675-1.5-1.5-1.5-1.5.675-1.5 1.5z" fill="#6b7b8d"/></g></svg>

<?xml version="1.0" encoding="UTF-8"?>
<svg width="24px" height="24px" viewBox="0 0 24 24" version="1.1" xmlns="http://www.w3.org/2000/svg" xmlns:xlink="http://www.w3.org/1999/xlink">
    <title>216更多-竖向备份 3</title>
    <g id="页面-1" stroke="none" stroke-width="1" fill="none" fill-rule="evenodd">
        <g id="建木自动化-首页搜索结果展示" transform="translate(-1073.000000, -312.000000)" fill-rule="nonzero">
            <g id="216更多-竖向备份-3" transform="translate(1073.000000, 312.000000)">
                <rect id="矩形" fill="#000000" opacity="0" x="0" y="0" width="24" height="24"></rect>
                <path d="M12,16.5 C12.825,16.5 13.5,17.175 13.5,18 C13.5,18.825 12.825,19.5 12,19.5 C11.175,19.5 10.5,18.825 10.5,18 C10.5,17.175 11.175,16.5 12,16.5 Z M10.5,12 C10.5,12.825 11.175,13.5 12,13.5 C12.825,13.5 13.5,12.825 13.5,12 C13.5,11.175 12.825,10.5 12,10.5 C11.175,10.5 10.5,11.175 10.5,12 Z M10.5,6 C10.5,6.825 11.175,7.5 12,7.5 C12.825,7.5 13.5,6.825 13.5,6 C13.5,5.175 12.825,4.5 12,4.5 C11.175,4.5 10.5,5.175 10.5,6 Z" id="形状" fill="#6B7B8D"></path>
            </g>
        </g>
    </g>
</svg>
